X:1
T:Sunny Banks
Z:Ed Wosika
S:Best of J&A McKenna Trk 1
M:C
L:1/8
K:D Major
B| "D"AFF2 "G"de "A7"cd| BcAF "G"GFGB| "D"AFF2 ~d2cA| "G"Bd "A7"AF "
D"D3A|
DEFA ~d2cA| "G"Bd "A7"AF GFGB| "D"AFF2 "G"dB "A7"cA| BdAF "G"D3||:
e| "D"fded "A7"c A2e| "D"fded "G"gfge| "D"fded "A7"cA "Am"A=c| "G"Bd "A7
"AG "D"FDD:|!
